X:1
T:Tourdion
%%score 1 2 ( 3 4 )
L:1/8
Q:1/4=184
M:3/4
K:D
V:1 treble nm="Sopran" snm="S"
V:2 treble nm="Alt" snm="A"
V:3 bass nm="Tenor/Bass" snm="T/B"
V:4 bass 
V:1
|:"^Presto" EF GA GF | E3 F GA | BA GG AF | (G2 FE D2) | EF GA GF | E2 G2 F2 | E4 D2 | %7
w: Quand je bois du vin clai-|ret, a- mi tout|tour- ne, tour- ne, tour- ne,|tour * * ne,|aus- si dé- sor mais je|bois An- jou|ou Ar-|
 !fermata!E6 ::!ff! B3 A Bc | B4 B2 | dc BA GF | (G3 F) E2 | B3 A Bc | B2 (AG) F2 | E4 D2 | %15
w: bois,|chan- tons et bu-|vons, á|ce fla- con fai- sons la|guer- * re,|chan- tons et bu-|vons, mes a- mis,|bu- von|
 E6!D.C.! :| %16
w: donc!|
V:2
|: B,4 B,2 | E4 E2 | D4 E2 | E2 A4 | G4 E2 | (B,A, B,C) D2 | B,2 B,4 | !fermata!B,6 ::!ff! G4 G2 | %9
w: Le bon|vin nous|a ren-|du gais,|chan- tons,|ou- bli- ons nos pei-|nes, chan-|tons!|En man-|
 G4 G2 | F4 F2 | E4 E2 | D4 D2 | D4 D2 | B,2 B,4 | B,4 B,2 :| %16
w: geant d'un|gras jam-|bon, á|ce fla-|con fai-|sons la|guer- re!|
V:3
|: G,4 E,2 | B,4 B,2 | (B,2 B,2) =C2 | B,4 A,2 | B,4 B,2 | G,4 A,2 | G,2 (F,D, F,2) | %7
w: Bu- vons|bien, bu-|vons mes a-|mis, trin-|quons, bu-|vons, gaie-|ment chan- * *|
 !fermata!E,6 ::!ff! E4 E2 | D4 D2 | D4 D2 | B,4 B,2 | B,4 B,2 | B,4 A,2 | G,2 F,4 | E,4 E,2 :| %16
w: tons!|En man-|geant d'un|gras jam-|bon, á|ce fla-|con fai-|sons la|guer- re!|
V:4
|: E,4 E,2 | E,4 E,2 | (G,2 B,2) A,2 | E,2 F,4 | E,4 E,2 | E,4 D,2 | E,2 B,,4 | E,6 :: E,4 E,2 | %9
 G,4 G,2 | D,4 D,2 | E,4 E,2 | G,4 G,2 | G,4 D,2 | E,2 B,,4 | E,4 E,2 :| %16

